lib/brands/icons/ms-sharepoint.svg

<svg xmlns="http://www.w3.org/2000/svg" fill="none" aria-hidden="true" viewBox="0 0 48 48"><g id="ms-sharepoint-Icon"><g id="sharepoint"><circle id="Ellipse" cx="23.5" cy="19.5" r="9.5" fill="url(#paint0_linear_94_18571)"/><circle id="Ellipse_2" cx="32" cy="25" r="8" fill="url(#paint1_linear_94_18571)"/><g id="Mask Group"><mask id="mask0_94_18571" width="13" height="24" x="18" y="14" maskUnits="userSpaceOnUse" style="mask-type:alpha"><path id="Ellipse 2" fill="#C4C4C4" d="M31 31.5C31 35.0899 28.0899 38 24.5 38C20.9101 38 18 35.0899 18 31.5C18 27.9102 18 14 18 14H31C31 14 31 29.1988 31 31.5Z"/></mask><g mask="url(#mask0_94_18571)"><circle id="Ellipse 2_2" cx="24.5" cy="31.5" r="6.5" fill="url(#paint2_linear_94_18571)"/><path id="Rectangle 2" fill="black" fill-opacity="0.3" d="M15 20C15 18.3431 16.3431 17 18 17H25C26.6569 17 28 18.3431 28 20V32C28 33.6569 26.6569 35 25 35H15V20Z"/></g></g><rect id="rectangle" width="18" height="18" x="8" y="15" fill="url(#paint3_linear_94_18571)" rx="2"/><path id="S" fill="white" d="M21 26.1229C21 24.5726 19.9602 23.8883 17.7966 23.0922C16.1027 22.4637 15.7002 22.2821 15.7002 21.6816C15.7002 21.1648 16.2034 20.8156 17.0587 20.8156C17.9308 20.8156 18.7526 21.1089 19.6751 21.6117L20.6143 19.9497C19.6247 19.3352 18.4507 19 17.0252 19C14.8449 19 13.2851 20.1173 13.2851 21.8212C13.2851 23.567 14.5262 24.1257 16.6059 24.8659C18.2662 25.4525 18.5849 25.7458 18.5849 26.2626C18.5849 26.8771 17.9979 27.1844 17.0755 27.1844C15.9853 27.1844 15.0294 26.8073 14.0734 26.1927L13 27.7849C14.174 28.595 15.6331 29 17.1258 29C19.3732 29 21 27.9385 21 26.1229Z"/></g></g><defs><linearGradient id="paint0_linear_94_18571" x1="14" x2="34.5833" y1="19.5" y2="19.5" gradientUnits="userSpaceOnUse"><stop stop-color="#103A3B"/><stop offset="1" stop-color="#116B6E"/></linearGradient><linearGradient id="paint1_linear_94_18571" x1="26" x2="40" y1="21" y2="29" gradientUnits="userSpaceOnUse"><stop stop-color="#1D9097"/><stop offset="1" stop-color="#29BBC2"/></linearGradient><linearGradient id="paint2_linear_94_18571" x1="20" x2="31" y1="29.5" y2="34.5" gradientUnits="userSpaceOnUse"><stop stop-color="#28A6B5"/><stop offset="1" stop-color="#31D6EC"/></linearGradient><linearGradient id="paint3_linear_94_18571" x1="8" x2="27.5" y1="24" y2="24" gradientUnits="userSpaceOnUse"><stop stop-color="#105557"/><stop offset="1" stop-color="#116B6E"/></linearGradient></defs></svg>

<svg xmlns="http://www.w3.org/2000/svg" fill="none" aria-hidden="true" viewBox="0 0 48 48"><circle cx="23.5" cy="19.5" r="9.5" fill="url(#a)"/><circle cx="32" cy="25" r="8" fill="url(#b)"/><mask id="c" width="13" height="24" x="18" y="14" maskUnits="userSpaceOnUse" style="mask-type:alpha"><path fill="#C4C4C4" d="M31 31.5a6.5 6.5 0 1 1-13 0V14h13v17.5Z"/></mask><g mask="url(#c)"><circle cx="24.5" cy="31.5" r="6.5" fill="url(#d)"/><path fill="#000" fill-opacity=".3" d="M15 20a3 3 0 0 1 3-3h7a3 3 0 0 1 3 3v12a3 3 0 0 1-3 3H15V20Z"/></g><rect width="18" height="18" x="8" y="15" fill="url(#e)" rx="2"/><path fill="#fff" d="M21 26.123c0-1.55-1.04-2.235-3.203-3.03-1.694-.63-2.097-.81-2.097-1.411 0-.517.503-.866 1.359-.866.872 0 1.694.293 2.616.796l.94-1.662c-.99-.615-2.164-.95-3.59-.95-2.18 0-3.74 1.117-3.74 2.821 0 1.746 1.241 2.305 3.32 3.045 1.661.587 1.98.88 1.98 1.397 0 .614-.587.921-1.51.921-1.09 0-2.046-.377-3.002-.991L13 27.785c1.174.81 2.633 1.215 4.126 1.215C19.373 29 21 27.939 21 26.123Z"/><defs><linearGradient id="a" x1="14" x2="34.583" y1="19.5" y2="19.5" gradientUnits="userSpaceOnUse"><stop stop-color="#103A3B"/><stop offset="1" stop-color="#116B6E"/></linearGradient><linearGradient id="b" x1="26" x2="40" y1="21" y2="29" gradientUnits="userSpaceOnUse"><stop stop-color="#1D9097"/><stop offset="1" stop-color="#29BBC2"/></linearGradient><linearGradient id="d" x1="20" x2="31" y1="29.5" y2="34.5" gradientUnits="userSpaceOnUse"><stop stop-color="#28A6B5"/><stop offset="1" stop-color="#31D6EC"/></linearGradient><linearGradient id="e" x1="8" x2="27.5" y1="24" y2="24" gradientUnits="userSpaceOnUse"><stop stop-color="#105557"/><stop offset="1" stop-color="#116B6E"/></linearGradient></defs></svg>
